X:570
T:Parthenia
C:Maggot Pie, 1932
L:1/4
S:Colin Hume's website,  colinhume.com  - chords can also be printed below the stave.
Q:1/2=112
M:2/2
K:F
P:A
|: "Gm"G2 g2 | "C"e3 d/c/ | "Gm"B/c/d "C"cB | "F"AF F2 |\
"Gm"G2 g2 | "Bb"d3 c/B/ | "D7"A/B/c BA | "Gm"G4 :|
P:B
|: "F"A3/ G/4A/4 "Gm"B3/ A/4B/4 | "F"c3 B/c/ | "Gm"d/c/B/A/ Gg | "D7"^f2 d3/ e/4f/4 |\
"Gm"gd "F"fc | "Gm"Bd "Bb"DE/F/ | "C"G/F/E/D/ Cc | "Gm"B2 G2 :|

